X: 1
T: Duncan Gray
M: 4/4
L: 1/8
R: reel
K: Gmaj
&quot;G&quot;DG FG | &quot;D7&quot;ABF2 | &quot;G&quot;G2&quot;Am&quot;A>c |1 &quot;G&quot;BGG2 :|2 &quot;G&quot;BG Gd ||
&quot;G&quot;Bd dc/B/ | &quot;C&quot;ccc2 | &quot;Am&quot;cB AG | &quot;D7&quot;F/G/A/F/ D2 |
&quot;G&quot;dB&quot;Am&quot;cA |&quot;G&quot;BG&quot;D7&quot;A2 | &quot;G&quot;G2&quot;Am&quot;A>c | &quot;G&quot;BGG2 |]
